packages/web-icons/svgs/paynow_1.svg

<svg viewBox="0 0 158 48" xmlns="http://www.w3.org/2000/svg" class="ridi_icon"><path d="M144.4 16.2v2.5m6.4 0v-2.5M13.4.2C11.2.2 8.9.8 7.2 2V0H.8v37h6.4V22.7c1.8 1.1 4 1.8 6.2 1.8 6.7 0 12.2-5.4 12.2-12.2C25.6 5.5 20.1.2 13.4.2zm0 17.9c-3.2 0-5.8-2.6-5.8-5.8 0-3.2 2.6-5.8 5.8-5.8 3.2 0 5.8 2.6 5.8 5.8 0 3.2-2.6 5.8-5.8 5.8zm97.1-6.4c-6.7 0-12.2 5.4-12.2 12.2 0 6.8 5.5 12.1 12.2 12.1 6.7 0 12.2-5.4 12.2-12.2 0-6.8-5.5-12.1-12.2-12.1zm0 17.9c-3.2 0-5.8-2.6-5.8-5.8 0-3.2 2.6-5.8 5.8-5.8 3.2 0 5.8 2.6 5.8 5.8 0 3.2-2.6 5.8-5.8 5.8zm-61.6-3V11.8h-6.4v1.6c-1.8-1.1-3.8-1.8-6.2-1.8-6.7 0-12.2 5.4-12.2 12.2 0 6.8 5.5 12.2 12.2 12.2 2.9 0 5.6-1.1 7.7-2.7.6 1.4 1.6 2.7 2.9 3.8l4.2-5c-1.7-1.4-2-4.6-2.2-5.5zm-12.5 3c-3.2 0-5.8-2.6-5.8-5.8 0-3.2 2.6-5.8 5.8-5.8 3.2 0 5.8 2.6 5.8 5.8 0 3.2-2.6 5.8-5.8 5.8zm36.5-18.2h-6.4v13c0 1.4-.3 6.1-4.5 6.1s-4.5-4.6-4.5-6.1v-13h-6.4v13c0 7.4 4.5 12.5 10.9 12.5 1.6 0 3.2-.3 4.5-1v1.8c0 1.3-.2 2.7-1.1 3.4-1.4 1-4.2.2-6.1-.6l-3.8 5.3c.5.3 4.3 2.2 7.8 2.2 1.9 0 3.8-.3 5.6-1.4 1.8-1.1 4-3.7 4-8.8V11.4zm77.9.6h6.4v2.6h-6.4zm-25.6 0h6.4v2.6h-6.4zm12.8 0h6.4v2.6H138zm12.8 4.2h6.4v2.6h-6.4zm-12.8 0h6.4v2.6H138zm12.8 8.1c0 2.2-.6 6.1-3.2 6.1s-3.2-3.8-3.2-6.1v-4H138v4c0 2.2-.6 6.1-3.2 6.1s-3.2-3.8-3.2-6.1v-4h-6.4v4c0 7.5 3.8 12.5 9.6 12.5 2.6 0 4.8-1 6.4-2.9 1.6 1.8 3.8 2.9 6.4 2.9 5.8 0 9.6-5 9.6-12.5v-4h-6.4v4zm-25.6-8.1h6.4v2.6h-6.4zm-39.6-4.8c-6.4 0-10.9 5.1-10.9 12.5v13h6.4v-13c0-1.4.3-6.1 4.5-6.1s4.5 4.6 4.5 6.1v13h6.4v-13c-.1-7.4-4.5-12.5-10.9-12.5z"/></svg>

<?xml version="1.0" encoding="UTF-8"?>
<svg width="158px" height="48px" viewBox="0 0 158 48" version="1.1" xmlns="http://www.w3.org/2000/svg">
  <!-- Generator: Sketch 41.2 (35397) - http://www.bohemiancoding.com/sketch -->
  <title>paynow_1</title>
  <desc>Created with Sketch.</desc>
  <defs></defs>
  <g id="Page-1" stroke="none" stroke-width="1" fill="none" fill-rule="evenodd">
    <g id="paynow_1">
      <g id="Layer_1">
        <g id="Group">
          <path d="M144.4,16.2 L144.4,18.7" id="Shape"></path>
          <path d="M150.8,18.7 L150.8,16.2" id="Shape"></path>
          <path d="M13.4,0.2 C11.2,0.2 8.9,0.8 7.2,2 L7.2,0 L0.8,0 L0.8,37 L7.2,37 L7.2,22.7 C9,23.8 11.2,24.5 13.4,24.5 C20.1,24.5 25.6,19.1 25.6,12.3 C25.6,5.5 20.1,0.2 13.4,0.2 Z M13.4,18.1 C10.2,18.1 7.6,15.5 7.6,12.3 C7.6,9.1 10.2,6.5 13.4,6.5 C16.6,6.5 19.2,9.1 19.2,12.3 C19.2,15.5 16.6,18.1 13.4,18.1 Z" id="Shape" fill="#000000"></path>
          <path d="M110.5,11.7 C103.8,11.7 98.3,17.1 98.3,23.9 C98.3,30.7 103.8,36 110.5,36 C117.2,36 122.7,30.6 122.7,23.8 C122.7,17 117.2,11.7 110.5,11.7 Z M110.5,29.6 C107.3,29.6 104.7,27 104.7,23.8 C104.7,20.6 107.3,18 110.5,18 C113.7,18 116.3,20.6 116.3,23.8 C116.3,27 113.7,29.6 110.5,29.6 Z" id="Shape" fill="#000000"></path>
          <path d="M48.9,26.6 L48.9,11.8 L42.5,11.8 L42.5,13.4 C40.7,12.3 38.7,11.6 36.3,11.6 C29.6,11.6 24.1,17 24.1,23.8 C24.1,30.6 29.6,36 36.3,36 C39.2,36 41.9,34.9 44,33.3 C44.6,34.7 45.6,36 46.9,37.1 L51.1,32.1 C49.4,30.7 49.1,27.5 48.9,26.6 Z M36.4,29.6 C33.2,29.6 30.6,27 30.6,23.8 C30.6,20.6 33.2,18 36.4,18 C39.6,18 42.2,20.6 42.2,23.8 C42.2,27 39.6,29.6 36.4,29.6 Z" id="Shape" fill="#000000"></path>
          <path d="M72.9,11.4 L66.5,11.4 L66.5,24.4 C66.5,25.8 66.2,30.5 62,30.5 C57.8,30.5 57.5,25.9 57.5,24.4 L57.5,11.4 L51.1,11.4 L51.1,24.4 C51.1,31.8 55.6,36.9 62,36.9 C63.6,36.9 65.2,36.6 66.5,35.9 L66.5,37.7 C66.5,39 66.3,40.4 65.4,41.1 C64,42.1 61.2,41.3 59.3,40.5 L55.5,45.8 C56,46.1 59.8,48 63.3,48 C65.2,48 67.1,47.7 68.9,46.6 C70.7,45.5 72.9,42.9 72.9,37.8 L72.9,24 L72.9,24 L72.9,11.4 L72.9,11.4 Z" id="Shape" fill="#000000"></path>
          <rect id="Rectangle-path" fill="#000000" x="150.8" y="12" width="6.4" height="2.6"></rect>
          <rect id="Rectangle-path" fill="#000000" x="125.2" y="12" width="6.4" height="2.6"></rect>
          <rect id="Rectangle-path" fill="#000000" x="138" y="12" width="6.4" height="2.6"></rect>
          <rect id="Rectangle-path" fill="#000000" x="150.8" y="16.2" width="6.4" height="2.6"></rect>
          <rect id="Rectangle-path" fill="#000000" x="138" y="16.2" width="6.4" height="2.6"></rect>
          <path d="M150.8,24.3 C150.8,26.5 150.2,30.4 147.6,30.4 C145,30.4 144.4,26.6 144.4,24.3 L144.4,20.3 L138,20.3 L138,24.3 C138,26.5 137.4,30.4 134.8,30.4 C132.2,30.4 131.6,26.6 131.6,24.3 L131.6,20.3 L125.2,20.3 L125.2,24.3 C125.2,31.8 129,36.8 134.8,36.8 C137.4,36.8 139.6,35.8 141.2,33.9 C142.8,35.7 145,36.8 147.6,36.8 C153.4,36.8 157.2,31.8 157.2,24.3 L157.2,20.3 L150.8,20.3 L150.8,24.3 Z" id="Shape" fill="#000000"></path>
          <rect id="Rectangle-path" fill="#000000" x="125.2" y="16.2" width="6.4" height="2.6"></rect>
          <path d="M85.6,11.4 C79.2,11.4 74.7,16.5 74.7,23.9 L74.7,36.9 L81.1,36.9 L81.1,23.9 C81.1,22.5 81.4,17.8 85.6,17.8 C89.8,17.8 90.1,22.4 90.1,23.9 L90.1,36.9 L96.5,36.9 L96.5,23.9 C96.4,16.5 92,11.4 85.6,11.4 Z" id="Shape" fill="#000000"></path>
        </g>
      </g>
    </g>
  </g>
</svg>
